X:1
T:Title
%%score { ( 1 2 6 ) | ( 3 4 5 ) }
L:1/8
Q:1/4=120
M:6/4
K:Eb
V:1 treble nm="Grand Piano"
V:2 treble 
V:6 treble 
V:3 bass 
V:4 bass 
V:5 bass 
V:1
 z2 E2 E2 [B,G]2 F2 E2 | z2 [EG]2 [B,DAB]2 [B,EGB]2 [CEAc]2 [DAd]2 | %2
 [EBe]2 [GBg]2 [E_G=Ae]2 [E=GBe]4 [F_ABd]2 | .[EGBe]12[K:bass] | .G6 z6 | %5
 z2 [EG]2 [B,DAB]2 [B,EGB]2 [CEAc]2 [DAd]2 | [EBe]2 [EBd]2 [EAc]2 [EB]2 [DA]2 [EG]2 | B6 F6 | %8
 .A6 z6 | .c6 z6 | [FAd]2 F2 G2 [DA]2 d2 c2 | c6 G6 | .G6 z6 | %13
 z2 [EG]2 [B,DAB]2 [B,EGB]2 [CEAc]2 [DFAd]2 | [EBe]2 d2 e2 [G_df]2 e2 d2 | c12 | %16
 [CEAc]2 =B2 c2 [E_Ge]2 d2 c2 | .c6 G6 | A2 G2 F2 [GAe]2 [Ad]2 [Gc]2 | z2 F2 G2 [DGB]2 c2 B2 | %20
 e6 e6 | .d12 | c6 c6 | .G12[K:bass][K:treble] | .G6 z6 | z4 E2 z2 F2 G2 | %26
 =A2 G2 F2 [EGe]2 [DFd]2 [CEc]2 | .B12 | e6 e6 | .d12 | c6 c6 | .G12 | %32
 [CF]2 [CF]2 [CG]2 [CA]2 [CG]2 [CF]2 | [EG]2 [DA]2 [EB]2 [Ec]2 [Ad]2 [Ge]2 | [FAf]6 [GB]6[K:bass] | %35
 [EGe]12[K:bass] |] %36
V:2
 [G,G]6 z6 | .[B,B]6 z6 | x12 | z2[K:bass] B,2 G,2 .E,6 | z2 B,2 G2 G2 F2 E2 | .[B,B]6 z6 | x12 | %7
 z2 D2 D2 z2 D2 D2 | z2 C2 A2 [FA]2 G2 F2 | z2 A2 c2 [DAc]2 d2 e2 | x12 | z2 G2 G2 z2 E2 E2 | %12
 z2 B,2 G2 G2 F2 E2 | .[B,B]6 z6 | x12 | z2 A2 A2 A2 A2 A2 | x12 | z2 G2 B2 z2 E2 E2 | x12 | %19
 [DB]6 z6 | z2 [EGB]2 [EGB]2 [EGB]2 [EGB]2 [EGB]2 | D2 F2 G2 z2 c2 B2 | %22
 z2 [EA]2 [EA]2 A2 [EA]2 [EA]2 | z2 E2 E2[K:bass] z2[K:treble] G2 B2 | z4 F2 [A,DF]2 G2 B2 | %25
 .F6 z6 | x12 | z2 [DFA]2 [DFA]2 [DFA]2 [Cc]2 [Dd]2 | z2 [EGB]2 [EGB]2 [EGB]2 [EGB]2 [EGB]2 | %29
 D2 F2 G2 z2 c2 B2 | z2 [EA]2 [EA]2 A2 [EA]2 [EA]2 | z2 E2 E2 [B,E]2 E2 G2 | x12 | x12 | %34
 z2 C2 D2 B,2[K:bass] A,2 F,2 | z2 B,2[K:bass] G,2 .E,6 |] %36
V:3
 z2 B,2 B,2 z2 A,2 G,2 | [G,,G,]4 [F,,F,]2 [E,,E,]2 [A,,A,]2 [F,,F,]2 | %2
 [G,,G,]2 [E,,E,]2 [C,,C,]2 [B,,,B,,]4 [B,,,B,,]2 | [E,,E,]2 B,,2 G,,2 .E,,6 | z4 C2 z2 A,2 G,2 | %5
 [G,,G,]4 [F,,F,]2 [E,,E,]2 [A,,A,]2 [F,,F,]2 | [G,,G,]4 [A,,A,]2 [G,,G,]2 [F,,F,]2 [E,,E,]2 | %7
 z2 B,2 B,2 z2 [A,B,]2 [A,B,]2 | z4 D2 z2 E2 D2 | %9
 z2[K:treble] D2 [DA]2[K:bass] z2[K:treble] [FA]2 [FA]2 | %10
 B,2 [A,D]2 [G,D]2 F,2[K:treble] [DA]2 [DA]2 | z2 E2 E2 z2 B,2 B,2 | z4 C2 z2 A,2 G,2 | %13
 [G,,G,]4 [F,,F,]2 [E,,E,]2 [A,,A,]2 [F,,F,]2 | %14
 z2[K:treble] [EB]2 [EB]2[K:bass] z2[K:treble] [Gc]2 [FB]2 | z2 E2 E2 E2 E2 E2 | %16
 z2[K:treble] [=B,E]2 [CEA]2[K:bass] z2[K:treble] [E_G]2 [EG]2 | z2 E2 [EG]2 z2 B,2 B,2 | %18
 z2 [A,CE]2 [A,CE]2 z2[K:treble] F2 E2 | z2 A,2 G,2 [B,,F,]2 C2 C2 | %20
 [E,,E,]2 [F,,F,]2 [G,,G,]2 [C,C]2 [B,,B,]2 [G,,G,]2 | [F,,F,]6 [B,,F,]6 | %22
 [A,,A,]2 [B,,B,]2 [C,C]2 [E,E]2 [D,D]2 [C,C]2 | z2 B,2 B,2 z2[K:treble] [B,E]2 [B,EG]2 | %24
 z2 A,4 z2 G,2 B,2 | z2 G,4 [B,,,B,,]6 | z2 [=A,CE]2 [A,CE]2 [F,,F,]2 [G,,G,]2 [=A,,A,]2 | %27
 [B,,B,]2 [A,,A,]2 [F,,F,]2 [D,,D,]2 [C,,C,]2 [D,,D,]2 | %28
 [E,,E,]2 [F,,F,]2 [G,,G,]2 [C,C]2 [B,,B,]2 [G,,G,]2 | [F,,F,]6 [B,,F,]6 | %30
 [A,,A,]2 [B,,B,]2 [C,C]2 [E,E]2 [D,D]2 [C,C]2 | z2 B,2 B,2 z2 B,2 [B,E]2 | %32
 [A,,A,]2 [A,,A,]2 [G,,G,]2 [F,,F,]2 [G,,G,]2 [A,,A,]2 | %33
 [B,,B,]2 [F,,F,]2 [G,,G,]2 [A,,A,]2 [B,,B,]2 [C,C]2 | [B,,B,]2 C,2 D,2 B,,2 A,,2 F,,2 | %35
 [E,,E,]2 B,,2 G,,2 .E,,6 |] %36
V:4
 [E,,E,]6 [B,,,B,,]6 | x12 | x12 | x12 | [E,,E,]6 [B,,,B,,]6 | x12 | x12 | [F,,F,]6 [B,,,B,,]6 | %8
 [F,,F,]6 [B,,,B,,]6 | [F,,F,]6[K:treble][K:bass] [B,,,B,,]6[K:treble] | z6 z2[K:treble] B,4 | %11
 [E,,E,]6 [B,,,B,,]6 | [E,,E,]6 [B,,,B,,]6 | x12 | [G,,G,]6[K:treble][K:bass] [E,,E,]6[K:treble] | %15
 [A,,A,]12 | [B,,A,]6[K:treble][K:bass] [=A,,=A,]6[K:treble] | [B,,B,]6 [B,,,B,,]6 | %18
 [F,,F,]6 [F,,F,]6[K:treble] | B,,6 z6 | x12 | x12 | x12 | [E,,E,]6 B,,,6[K:treble] | %24
 [F,,F,]6 [B,,,B,,]6 | [E,,E,]6 z6 | [F,,F,]6 z6 | x12 | x12 | x12 | x12 | [E,,E,]6 [B,,,B,,]6 | %32
 x12 | x12 | x12 | x12 |] %36
V:5
 x12 | x12 | x12 | x12 | x12 | x12 | x12 | x12 | x12 | x2[K:treble] x4[K:bass] x2[K:treble] x4 | %10
 B,,6 B,,6[K:treble] | x12 | x12 | x12 | x2[K:treble] x4[K:bass] x2[K:treble] x4 | x12 | %16
 x2[K:treble] x4[K:bass] x2[K:treble] x4 | x12 | x8[K:treble] x4 | x12 | x12 | x12 | x12 | %23
 x8[K:treble] x4 | x12 | x12 | x12 | x12 | x12 | x12 | x12 | x12 | x12 | x12 | x12 | x12 |] %36
V:6
 x12 | x12 | x12 | x2[K:bass] x10 | x12 | x12 | x12 | x12 | x12 | x12 | x12 | x12 | x12 | x12 | %14
 x12 | x12 | x12 | x12 | x12 | x12 | x12 | z6 [DA]6 | x12 | z6[K:bass] B,,6[K:treble] | z2 D4 z6 | %25
 z2 B,4 [G,B,E]6 | x12 | x12 | x12 | z6 [DA]6 | x12 | x12 | x12 | x12 | x8[K:bass] x4 | %35
 x4[K:bass] x8 |] %36

